source/img/toy-svg.svg

<svg width="61" height="61" viewBox="0 0 61 61" fill="none" xmlns="http://www.w3.org/2000/svg">
<path d="M0 44.7265L27.8567 61V37.1527L0 20.7769V44.7265ZM52.155 12.6913V15.25C52.155 17.0923 48.5967 18.6275 44.3267 18.6275C39.955 18.6275 36.4983 17.0923 36.4983 15.25V11.0537C36.8033 12.7936 40.1583 14.2265 44.3267 14.2265C48.6983 14.2265 52.155 12.6913 52.155 10.849C52.155 9.00672 48.5967 7.47148 44.3267 7.47148C44.0217 7.47148 43.615 7.47148 43.31 7.47148L38.2267 4.50337V7.67618C38.2267 9.51846 34.6683 11.0537 30.3983 11.0537C27.6533 11.0537 25.315 10.4396 23.8917 9.51846C23.6883 9.31376 23.485 9.10906 23.18 8.90436C22.7733 8.49496 22.57 8.08557 22.57 7.67618V4.60571L17.69 7.47148C17.385 7.47148 16.9783 7.47148 16.5717 7.47148C12.2 7.47148 8.74334 9.00672 8.74334 10.849C8.74334 12.6913 12.3017 14.2265 16.5717 14.2265C20.74 14.2265 24.095 12.7936 24.4 11.0537V15.25C24.4 17.0923 20.8417 18.6275 16.5717 18.6275C12.2 18.6275 8.74334 17.0923 8.74334 15.25V12.7936L2.64334 16.3758L30.6017 32.7517L58.4583 16.4782L52.155 12.6913ZM38.3283 23.1309C38.3283 24.9732 34.77 26.5084 30.5 26.5084C26.1283 26.5084 22.6717 24.9732 22.6717 23.1309V18.9346C22.9767 20.6745 26.3317 22.1074 30.5 22.1074C34.6683 22.1074 38.0233 20.6745 38.3283 18.9346V23.1309ZM33.1433 37.3574V61L61 44.7265V21.0839L33.1433 37.3574ZM30.3983 6.75504C34.77 6.75504 38.2267 5.2198 38.2267 3.37752C38.2267 1.53524 34.6683 0 30.3983 0C26.0267 0 22.57 1.53524 22.57 3.37752C22.57 5.2198 26.0267 6.75504 30.3983 6.75504Z" fill="#149080"/>
</svg>

<svg width="61" height="61" fill="none" xmlns="http://www.w3.org/2000/svg"><path d="M0 44.73L27.86 61V37.15L0 20.78v23.95zm52.16-32.04v2.56c0 1.84-3.56 3.38-7.83 3.38-4.38 0-7.83-1.54-7.83-3.38v-4.2c.3 1.74 3.66 3.18 7.83 3.18 4.37 0 7.83-1.54 7.83-3.38 0-1.84-3.56-3.38-7.83-3.38H43.3L38.23 4.5v3.18c0 1.84-3.56 3.37-7.83 3.37-2.75 0-5.08-.61-6.5-1.53-.21-.2-.41-.41-.72-.62-.4-.4-.61-.81-.61-1.22V4.6l-4.88 2.86h-1.12c-4.37 0-7.83 1.54-7.83 3.38 0 1.84 3.56 3.38 7.83 3.38 4.17 0 7.52-1.44 7.83-3.18v4.2c0 1.84-3.56 3.38-7.83 3.38-4.37 0-7.83-1.54-7.83-3.38v-2.46l-6.1 3.59L30.6 32.75l27.86-16.27-6.3-3.79zM38.33 23.13c0 1.84-3.56 3.38-7.83 3.38-4.37 0-7.83-1.54-7.83-3.38v-4.2c.3 1.74 3.66 3.18 7.83 3.18s7.52-1.44 7.83-3.18v4.2zm-5.19 14.23V61L61 44.73V21.08L33.14 37.36zM30.4 6.76c4.37 0 7.83-1.54 7.83-3.38C38.23 1.54 34.67 0 30.4 0c-4.37 0-7.83 1.54-7.83 3.38 0 1.84 3.46 3.38 7.83 3.38z" fill="#149080"/></svg>
